X: 1006
T:Byrne's Hornpipe (A3)
N:page A3
N: heptatonic
R: Hornpipe
M:C
L:1/8
S:Kidson's H'pipe MS,early 20thC.
O:England
A:Leeds
K:D
AG|"D"F{G}F{D}FG "A"AFDA|"D"dA (3Bcd "A"ecAg|"D"fdge fdec|"G"(3dcB cd  ecAG|
"D"F{G}F{D}FG "A"AFDA|"D"dA (3Bcd "G"ecAg|"D"fdge fdec|(3ded ce d2::cd|
"A"ecAc efge|"G"agdg baeg|"A"afdf "D"(3gfe af|"G" ge (3fed "A"ecAG|
"D"F{G}F{D}FG AFDA|dc (3Bcd "A"ecAg"D"|fdge fdec|"C#dim"(3ded ce "D"d2:|
